X:1
T:Title
%%score ( 1 2 ) 3
L:1/8
Q:1/4=111
M:4/4
K:E
V:1 treble nm="Grand Piano, Soprano"
V:2 treble 
V:3 bass nm="Choir Pad, How Wonderful Jesus Is!"
V:1
 [B,E]2 [EG]2 [EA]2 [EG]2 | [EF]2 [Dc]2 [EB]2 [EB]2 | [B,E]2 [EG]>[EG] [EG]2 [EB]2 | [EG]2 [DF]6 | %4
w: By~Thoro~Harris * * *||||
 [B,E]2 [EG]2 [EA]2 [EG]2 | [EF]2 [Dc]2 [EB]2 [EB]2 | [^Ec]2 [Fd]>[=Ec] [DB]2 [Ec]2 | %7
w: |||
 [Fd]2 B2- [FB-]2 [EB]2 | [AB]2 [Ge]>[FB] [EB]2 [Ec]2 | [Ee]2 B2- [DB-]2 [EB]>D | %10
w: |||
 [EB]2 [Ec]>[Ed] [Ee]2 [EB]2 | [EG]2 [DF]6 | [B,E]2 [EG]2 [EA]2 [EG]2 | [EF]2 [Ec]2 [DB]2 [EB]2 | %14
w: ||||
 [FB]2 [Ee]>[DB] [EB]2 [EG]2 | [DF]2 [B,E]6- | [B,E]2 z2 z4 |] %17
w: |||
V:2
 x8 | x8 | x8 | x8 | x8 | x8 | x8 | z2 D2 z4 | x8 | z2 E2 z4 | x8 | x8 | x8 | x8 | x8 | x8 | x8 |] %17
V:3
 [E,G,]2 [E,B,]2 [E,C]2 [E,B,]2 | [E,^A,]2 [E,=A,]2 [E,G,]2 [E,G,]2 | %2
 [E,G,]2 [E,B,]>[E,^A,] [E,B,]2 [G,E]2 | [E,B,]2 [B,,A,]6 | [E,G,]2 [E,B,]2 [E,C]2 [E,B,]2 | %5
 [E,^A,]2 [E,=A,]2 [E,G,]2 [G,B,]2 | [=G,B,]2 [F,B,]>[F,B,] [F,B,]2 [F,^A,]2 | %7
 [F,^A,]2 B,2 =A,2 G,2 | [F,B,]2 [E,B,]>[E,A,] [E,G,]2 [A,,A,]2 | %9
 [C,A,]2 [E,G,]2 [F,A,]2 [G,B,]>[F,A,] | [E,G,]2 A,>[A,B,] [A,C]2 [G,E]2 | [E,B,]2 [B,,A,]6 | %12
 [E,G,]2 [E,B,]2 [E,C]2 [E,B,]2 | [E,^A,]2 [E,=A,]2 [F,A,]2 [G,B,]2 | %14
 [A,B,]2 [G,B,]>[F,A,] [E,G,]2 B,2 | [B,,A,]2 [E,G,]6- | [E,G,]2 z2 z4 |] %17

